src/assets/images/realtime/realtimekit/web/components-gallery/rtk-controlbar-button.svg

<svg xmlns="http://www.w3.org/2000/svg" xmlns:xlink="http://www.w3.org/1999/xlink" width="400" height="300" fill="none" viewBox="0 0 400 300"><g clip-path="url(#clip0_9986_597)"><path fill="#fff" d="M0 0h400v300H0z"/><path fill="url(#pattern0_9986_597)" d="M0 4.21A4.21 4.21 0 0 1 4.21 0h391.58A4.21 4.21 0 0 1 400 4.21v291.58a4.21 4.21 0 0 1-4.211 4.211H4.211A4.21 4.21 0 0 1 0 295.789z" style="mix-blend-mode:darken"/><rect width="113" height="81.79" x="144" y="109" fill="#050505" rx="5.947"/><path fill="#fff" d="M201 144.145a5.25 5.25 0 0 0 5.25-5.25v-8.75a5.25 5.25 0 1 0-10.5 0v8.75a5.25 5.25 0 0 0 5.25 5.25m0-1.75a3.5 3.5 0 0 1-3.5-3.5v-8.75a3.5 3.5 0 1 1 7 0v8.75a3.5 3.5 0 0 1-3.5 3.5m-8.75-4.375c.483 0 .875.391.875.875a7.875 7.875 0 0 0 15.75 0 .875.875 0 1 1 1.75 0c0 5.02-3.844 9.143-8.75 9.585v3.54a.875.875 0 0 1-1.75 0v-3.54c-4.906-.442-8.75-4.565-8.75-9.585 0-.484.392-.875.875-.875"/><path fill="#fff" fill-opacity=".88" d="M174.115 179.842v-12.976h4.536q1.356 0 2.237.469.88.462 1.311 1.248.432.78.431 1.73 0 .836-.298 1.381-.291.544-.773.862a3.5 3.5 0 0 1-1.032.469v.126q.595.039 1.197.418.601.38 1.008 1.09.405.71.405 1.736 0 .977-.443 1.755-.444.78-1.401 1.236t-2.49.456zm1.571-1.394h3.117q1.54 0 2.186-.595.653-.602.653-1.458a2.3 2.3 0 0 0-.336-1.216 2.43 2.43 0 0 0-.957-.9q-.621-.342-1.47-.342h-3.193zm0-5.88h2.914q.71 0 1.28-.278.577-.279.913-.786.342-.507.342-1.191 0-.856-.596-1.451-.595-.602-1.888-.602h-2.965zm15.963 3.295v-5.753h1.496v9.732h-1.496v-1.647h-.101a3.2 3.2 0 0 1-1.064 1.261q-.723.513-1.825.513-.912 0-1.622-.399-.71-.406-1.115-1.217-.406-.817-.406-2.059v-6.184h1.496v6.083q0 1.064.595 1.698.602.633 1.533.633.558 0 1.135-.285.582-.285.975-.874.399-.59.399-1.502m8.467-5.753v1.267h-5.044v-1.267zm-3.574-2.332h1.496v9.276q0 .634.183.951a.96.96 0 0 0 .482.418q.298.1.627.101.247 0 .406-.025l.253-.051.304 1.343a3 3 0 0 1-.424.114 3 3 0 0 1-.691.064q-.633 0-1.242-.273a2.46 2.46 0 0 1-1.001-.83q-.393-.557-.393-1.406zm10.056 2.332v1.267h-5.044v-1.267zm-3.574-2.332h1.495v9.276q0 .634.184.951a.95.95 0 0 0 .482.418q.297.1.627.101.248 0 .405-.025l.254-.051.304 1.343a3 3 0 0 1-.425.114 3 3 0 0 1-.69.064q-.634 0-1.242-.273a2.46 2.46 0 0 1-1.001-.83q-.393-.557-.393-1.406zm9.672 12.267q-1.319 0-2.313-.627-.988-.628-1.546-1.756-.55-1.127-.551-2.635 0-1.521.551-2.655.558-1.134 1.546-1.761.994-.628 2.313-.628 1.318 0 2.306.628.995.627 1.546 1.761.558 1.134.558 2.655 0 1.508-.558 2.635-.551 1.128-1.546 1.756-.988.627-2.306.627m0-1.343q1 0 1.647-.514.647-.513.957-1.349a5.2 5.2 0 0 0 .311-1.812q0-.976-.311-1.819a3.06 3.06 0 0 0-.957-1.362q-.647-.52-1.647-.52t-1.647.52q-.646.519-.957 1.362a5.2 5.2 0 0 0-.311 1.819q0 .975.311 1.812.31.836.957 1.349.646.514 1.647.514m8.188-4.714v5.854h-1.496v-9.732h1.445v1.521h.127a2.77 2.77 0 0 1 1.039-1.192q.696-.456 1.799-.456.989 0 1.73.406.74.399 1.153 1.216.412.811.412 2.053v6.184h-1.495v-6.082q0-1.148-.596-1.787-.595-.647-1.635-.647a2.6 2.6 0 0 0-1.28.311 2.2 2.2 0 0 0-.88.906q-.324.596-.323 1.445"/></g><defs><clipPath id="clip0_9986_597"><path fill="#fff" d="M0 0h400v300H0z"/></clipPath><pattern id="pattern0_9986_597" width=".037" height=".049" patternContentUnits="objectBoundingBox"><use xlink:href="#image0_9986_597" transform="scale(.00066 .00088)"/></pattern><image xlink:href="data:image/png;base64,iVBORw0KGgoAAAANSUhEUgAAADgAAAA4CAYAAACohjseAAAACXBIWXMAACxLAAAsSwGlPZapAAAAAXNSR0IArs4c6QAAAARnQU1BAACxjwv8YQUAAADdSURBVHgB7dmxDoMgFIXhCzEmbsbF9388F8PGAKHt6dSksvXaHHK+EQbzB0Sj4fFiA4s2OAWyUyA7BbJTIDsFslMgOwWyUyA7BbJTIDsFspvsBrVWO8/TSinWWrNlWWxdV5sm/8sH7w+/iDuO4x32KcZo+767R7pv0ZTSVxxgDKvqzT0w59ydw5b15h4YQujOXa3sr7kHzvPcncNh4809cNu2y1XEGE5Sb+GO32c4SXHY4H5EGFYV4UM8Jv5Nr2rsFMhOgewUyE6B7BTIToHsFMhOgewUyE6B7IYPfALcB0NZ5j6jXgAAAABJRU5ErkJggg==" id="image0_9986_597" width="56" height="56" preserveAspectRatio="none"/></defs></svg>

<svg width="400" height="300" viewBox="0 0 400 300" fill="none" xmlns="http://www.w3.org/2000/svg" xmlns:xlink="http://www.w3.org/1999/xlink">
<g clip-path="url(#clip0_9986_597)">
<rect width="400" height="300" fill="white"/>
<g style="mix-blend-mode:darken">
<path d="M0 4.21053C0 1.88512 1.88512 0 4.21053 0H395.789C398.115 0 400 1.88512 400 4.21053V295.789C400 298.115 398.115 300 395.789 300H4.21054C1.88513 300 0 298.115 0 295.789V4.21053Z" fill="url(#pattern0_9986_597)"/>
</g>
<rect x="144" y="109" width="113" height="81.7895" rx="5.94737" fill="#050505"/>
<path d="M201 144.145C203.899 144.145 206.25 141.794 206.25 138.895V130.145C206.25 127.245 203.899 124.895 201 124.895C198.101 124.895 195.75 127.245 195.75 130.145V138.895C195.75 141.794 198.101 144.145 201 144.145ZM201 142.395C199.067 142.395 197.5 140.828 197.5 138.895V130.145C197.5 128.212 199.067 126.645 201 126.645C202.933 126.645 204.5 128.212 204.5 130.145V138.895C204.5 140.828 202.933 142.395 201 142.395ZM192.25 138.02C192.733 138.02 193.125 138.411 193.125 138.895C193.125 143.244 196.651 146.77 201 146.77C205.349 146.77 208.875 143.244 208.875 138.895C208.875 138.411 209.267 138.02 209.75 138.02C210.233 138.02 210.625 138.411 210.625 138.895C210.625 143.915 206.781 148.038 201.875 148.48V152.02C201.875 152.503 201.483 152.895 201 152.895C200.517 152.895 200.125 152.503 200.125 152.02V148.48C195.219 148.038 191.375 143.915 191.375 138.895C191.375 138.411 191.767 138.02 192.25 138.02Z" fill="white"/>
<path d="M174.115 179.842V166.866H178.651C179.555 166.866 180.301 167.022 180.888 167.335C181.475 167.643 181.912 168.059 182.199 168.583C182.487 169.103 182.63 169.679 182.63 170.313C182.63 170.87 182.531 171.331 182.332 171.694C182.138 172.057 181.88 172.344 181.559 172.556C181.243 172.767 180.898 172.923 180.527 173.025V173.151C180.924 173.177 181.323 173.316 181.724 173.569C182.125 173.823 182.461 174.186 182.732 174.659C183.002 175.132 183.137 175.711 183.137 176.395C183.137 177.046 182.989 177.631 182.694 178.15C182.398 178.67 181.931 179.082 181.293 179.386C180.655 179.69 179.825 179.842 178.803 179.842H174.115ZM175.686 178.448H178.803C179.83 178.448 180.558 178.25 180.989 177.853C181.424 177.451 181.642 176.966 181.642 176.395C181.642 175.956 181.53 175.55 181.306 175.179C181.082 174.803 180.763 174.503 180.349 174.279C179.935 174.051 179.445 173.937 178.879 173.937H175.686V178.448ZM175.686 172.568H178.6C179.074 172.568 179.5 172.475 179.88 172.29C180.265 172.104 180.569 171.842 180.793 171.504C181.021 171.166 181.135 170.769 181.135 170.313C181.135 169.742 180.936 169.259 180.539 168.862C180.142 168.461 179.513 168.26 178.651 168.26H175.686V172.568ZM191.649 175.863V170.11H193.145V179.842H191.649V178.195H191.548C191.32 178.689 190.965 179.109 190.484 179.456C190.002 179.798 189.394 179.969 188.659 179.969C188.051 179.969 187.51 179.836 187.037 179.57C186.564 179.299 186.192 178.894 185.922 178.353C185.651 177.808 185.516 177.122 185.516 176.294V170.11H187.012V176.193C187.012 176.902 187.21 177.468 187.607 177.891C188.008 178.313 188.519 178.524 189.14 178.524C189.512 178.524 189.89 178.429 190.275 178.239C190.663 178.049 190.988 177.758 191.25 177.365C191.516 176.972 191.649 176.471 191.649 175.863ZM200.116 170.11V171.377H195.072V170.11H200.116ZM196.542 167.778H198.038V177.054C198.038 177.477 198.099 177.793 198.221 178.005C198.348 178.212 198.509 178.351 198.703 178.423C198.901 178.49 199.111 178.524 199.33 178.524C199.495 178.524 199.63 178.516 199.736 178.499C199.841 178.478 199.926 178.461 199.989 178.448L200.293 179.791C200.192 179.829 200.05 179.867 199.869 179.905C199.687 179.948 199.457 179.969 199.178 179.969C198.756 179.969 198.342 179.878 197.936 179.696C197.535 179.515 197.201 179.238 196.935 178.866C196.673 178.495 196.542 178.026 196.542 177.46V167.778ZM206.598 170.11V171.377H201.554V170.11H206.598ZM203.024 167.778H204.519V177.054C204.519 177.477 204.581 177.793 204.703 178.005C204.83 178.212 204.99 178.351 205.185 178.423C205.383 178.49 205.592 178.524 205.812 178.524C205.977 178.524 206.112 178.516 206.217 178.499C206.323 178.478 206.408 178.461 206.471 178.448L206.775 179.791C206.674 179.829 206.532 179.867 206.35 179.905C206.169 179.948 205.939 179.969 205.66 179.969C205.237 179.969 204.824 179.878 204.418 179.696C204.017 179.515 203.683 179.238 203.417 178.866C203.155 178.495 203.024 178.026 203.024 177.46V167.778ZM212.696 180.045C211.817 180.045 211.046 179.836 210.383 179.418C209.724 178.999 209.209 178.414 208.837 177.662C208.47 176.911 208.286 176.032 208.286 175.027C208.286 174.013 208.47 173.128 208.837 172.372C209.209 171.616 209.724 171.029 210.383 170.611C211.046 170.192 211.817 169.983 212.696 169.983C213.575 169.983 214.343 170.192 215.002 170.611C215.665 171.029 216.181 171.616 216.548 172.372C216.92 173.128 217.106 174.013 217.106 175.027C217.106 176.032 216.92 176.911 216.548 177.662C216.181 178.414 215.665 178.999 215.002 179.418C214.343 179.836 213.575 180.045 212.696 180.045ZM212.696 178.702C213.363 178.702 213.912 178.53 214.343 178.188C214.774 177.846 215.093 177.396 215.3 176.839C215.507 176.281 215.611 175.677 215.611 175.027C215.611 174.376 215.507 173.77 215.3 173.208C215.093 172.646 214.774 172.192 214.343 171.846C213.912 171.5 213.363 171.326 212.696 171.326C212.029 171.326 211.479 171.5 211.049 171.846C210.618 172.192 210.299 172.646 210.092 173.208C209.885 173.77 209.781 174.376 209.781 175.027C209.781 175.677 209.885 176.281 210.092 176.839C210.299 177.396 210.618 177.846 211.049 178.188C211.479 178.53 212.029 178.702 212.696 178.702ZM220.884 173.988V179.842H219.388V170.11H220.833V171.631H220.96C221.188 171.136 221.534 170.739 221.999 170.439C222.463 170.135 223.063 169.983 223.798 169.983C224.457 169.983 225.034 170.118 225.528 170.389C226.022 170.655 226.406 171.06 226.681 171.605C226.956 172.146 227.093 172.83 227.093 173.658V179.842H225.598V173.76C225.598 172.995 225.399 172.399 225.002 171.973C224.605 171.542 224.06 171.326 223.367 171.326C222.89 171.326 222.463 171.43 222.087 171.637C221.716 171.844 221.422 172.146 221.207 172.543C220.991 172.94 220.884 173.422 220.884 173.988Z" fill="white" fill-opacity="0.88"/>
</g>
<defs>
<pattern id="pattern0_9986_597" patternContentUnits="objectBoundingBox" width="0.0368421" height="0.0491228">
<use xlink:href="#image0_9986_597" transform="scale(0.000657895 0.000877193)"/>
</pattern>
<clipPath id="clip0_9986_597">
<rect width="400" height="300" fill="white"/>
</clipPath>
<image id="image0_9986_597" width="56" height="56" preserveAspectRatio="none" xlink:href="data:image/png;base64,iVBORw0KGgoAAAANSUhEUgAAADgAAAA4CAYAAACohjseAAAACXBIWXMAACxLAAAsSwGlPZapAAAAAXNSR0IArs4c6QAAAARnQU1BAACxjwv8YQUAAADdSURBVHgB7dmxDoMgFIXhCzEmbsbF9388F8PGAKHt6dSksvXaHHK+EQbzB0Sj4fFiA4s2OAWyUyA7BbJTIDsFslMgOwWyUyA7BbJTIDsFspvsBrVWO8/TSinWWrNlWWxdV5sm/8sH7w+/iDuO4x32KcZo+767R7pv0ZTSVxxgDKvqzT0w59ydw5b15h4YQujOXa3sr7kHzvPcncNh4809cNu2y1XEGE5Sb+GO32c4SXHY4H5EGFYV4UM8Jv5Nr2rsFMhOgewUyE6B7BTIToHsFMhOgewUyE6B7IYPfALcB0NZ5j6jXgAAAABJRU5ErkJggg=="/>
</defs>
</svg>
